X:5
T:COL. McBAIN'S -- REEL.
R:reel
Z:20020507 John Walsh <walsh:mat:h.ubc.ca>
M:C|
K:Gm
S "G minor"u(GA)|:(Bd)Gd BG(dB)|AcFc AFcF|(Bd)Gd BG(dG)|dcBA BGGA|
(Bd)Gd BG(dB)|AcFc AFcA|{A}G^FGA Bcde|fdcA (AG)G2:|
|:A2|B2{c}BA Bdfd|cdcB ABcA|G2g2 (g^fga)|bgg^f g2(ga)|
bag^f gdde|=fdcB AFFA|BAGF DGGA|BdcA G2 S:|
